src/pos-icons/comment-eye.svg

<svg height="24" viewBox="0 0 24 24" width="24" xmlns="http://www.w3.org/2000/svg"><path d="m20 12v4c0 1.11-.89 2-2 2h-4.1l-3.7 3.71c-.2.18-.44.29-.7.29h-.5a1 1 0 0 1 -1-1v-3h-4a2 2 0 0 1 -2-2v-10c0-1.11.9-2 2-2h5.5c-.55.67-1 1.42-1.36 2.25l-.29.75.29.75c1.29 3.19 4.36 5.25 7.86 5.25 1.44 0 2.8-.37 4-1m-4-6c.56 0 1 .44 1 1s-.44 1-1 1-1-.44-1-1 .44-1 1-1m0-3c2.73 0 5.06 1.66 6 4-.94 2.34-3.27 4-6 4s-5.06-1.66-6-4c.94-2.34 3.27-4 6-4m0 1.5a2.5 2.5 0 0 0 -2.5 2.5 2.5 2.5 0 0 0 2.5 2.5 2.5 2.5 0 0 0 2.5-2.5 2.5 2.5 0 0 0 -2.5-2.5"/></svg>

<?xml version="1.0" encoding="UTF-8"?><!DOCTYPE svg PUBLIC "-//W3C//DTD SVG 1.1//EN" "http://www.w3.org/Graphics/SVG/1.1/DTD/svg11.dtd"><svg xmlns="http://www.w3.org/2000/svg" xmlns:xlink="http://www.w3.org/1999/xlink" version="1.1" id="mdi-comment-eye" width="24" height="24" viewBox="0 0 24 24"><path d="M20,12V16C20,17.11 19.11,18 18,18H13.9L10.2,21.71C10,21.89 9.76,22 9.5,22H9A1,1 0 0,1 8,21V18H4A2,2 0 0,1 2,16V6C2,4.89 2.9,4 4,4H9.5C8.95,4.67 8.5,5.42 8.14,6.25L7.85,7L8.14,7.75C9.43,10.94 12.5,13 16,13C17.44,13 18.8,12.63 20,12M16,6C16.56,6 17,6.44 17,7C17,7.56 16.56,8 16,8C15.44,8 15,7.56 15,7C15,6.44 15.44,6 16,6M16,3C18.73,3 21.06,4.66 22,7C21.06,9.34 18.73,11 16,11C13.27,11 10.94,9.34 10,7C10.94,4.66 13.27,3 16,3M16,4.5A2.5,2.5 0 0,0 13.5,7A2.5,2.5 0 0,0 16,9.5A2.5,2.5 0 0,0 18.5,7A2.5,2.5 0 0,0 16,4.5" /></svg>
